public/img/ecosystem/inertia.min.svg

<svg clip-rule="evenodd" fill-rule="evenodd" stroke-linejoin="round" stroke-miterlimit="2" viewBox="0 0 62 35" xmlns="http://www.w3.org/2000/svg"><g fill="#fff" fill-rule="nonzero" transform="translate(-213.4 -16.1)"><path d="m231.2 16.1h-17.8l17.2 17.2-17.2 17.2h17.8l17.2-17.2z"/><path d="m258.1 16.1h-17.8l17.2 17.2-17.2 17.2h17.8l17.2-17.2z"/></g></svg>

<?xml version="1.0" encoding="UTF-8" standalone="no"?>
<!DOCTYPE svg PUBLIC "-//W3C//DTD SVG 1.1//EN" "http://www.w3.org/Graphics/SVG/1.1/DTD/svg11.dtd">
<svg width="100%" height="100%" viewBox="0 0 62 35" version="1.1" xmlns="http://www.w3.org/2000/svg" xmlns:xlink="http://www.w3.org/1999/xlink" xml:space="preserve" xmlns:serif="http://www.serif.com/" style="fill-rule:evenodd;clip-rule:evenodd;stroke-linejoin:round;stroke-miterlimit:2;">
    <g transform="matrix(1,0,0,1,-213.4,-16.1)">
        <path d="M231.2,16.1L213.4,16.1L230.6,33.3L213.4,50.5L231.2,50.5L248.4,33.3L231.2,16.1Z" style="fill:white;fill-rule:nonzero;"/>
    </g>
    <g transform="matrix(1,0,0,1,-213.4,-16.1)">
        <path d="M258.1,16.1L240.3,16.1L257.5,33.3L240.3,50.5L258.1,50.5L275.3,33.3L258.1,16.1Z" style="fill:white;fill-rule:nonzero;"/>
    </g>
</svg>
